svgs/duotone/audio-description-slash.svg

<svg xmlns="http://www.w3.org/2000/svg" viewBox="0 0 640 512"><!--! Font Awesome Pro 6.3.0 by @fontawesome - https://fontawesome.com License - https://fontawesome.com/license (Commercial License) Copyright 2023 Fonticons, Inc. --><defs><style>.fa-secondary{opacity:.4}</style></defs><path class="fa-primary" d="M630.8 469.1L38.81 5.111C34.41 1.673 29.19 .0003 24.03 .0003c-7.125 0-14.19 3.158-18.91 9.189c-8.187 10.44-6.37 25.53 4.068 33.7l591.1 463.1c10.5 8.203 25.57 6.328 33.69-4.078C643.1 492.4 641.2 477.3 630.8 469.1z"/><path class="fa-secondary" d="M306.7 349.5c-3.438 1.719-7.094 2.531-10.69 2.531c-8.812 0-17.28-4.859-21.5-13.27l-9.367-18.73H182.8l-9.367 18.73c-5.906 11.86-20.31 16.7-32.19 10.73c-11.88-5.938-16.69-20.34-10.75-32.2l42.49-84.97L32 121.8l0 294.2c0 35.35 28.65 64 64 64l393.1 .0002l-174.6-136.8C312.4 345.7 309.8 347.9 306.7 349.5zM202.8 280h31.05l-22.3-17.48L202.8 280zM544 32L96 32c-6.645 0-12.96 1.176-18.96 3.073l258.1 202.1V184c0-13.25 10.75-24 24-24h56c52.94 0 96 43.06 96 96c0 35.29-19.35 65.85-47.78 82.53l135.9 106.5c4.621-8.783 7.922-18.37 7.922-29.02L608 96C608 60.65 579.3 32 544 32zM464 256c0-26.47-21.53-48-48-48h-32v67.66l35.68 27.97C444.4 301.7 464 281.2 464 256z"/></svg>

<svg xmlns="http://www.w3.org/2000/svg" viewBox="0 0 640 512"><!-- Font Awesome Pro 6.0.0-alpha2 by @fontawesome - https://fontawesome.com License - https://fontawesome.com/license (Commercial License) --><defs><style>.fa-secondary{opacity:.4}</style></defs><path d="M306.719 349.469C303.281 351.188 299.625 352 296.031 352C287.219 352 278.75 347.141 274.531 338.734L265.164 320H182.836L173.469 338.734C167.562 350.594 153.156 355.438 141.281 349.469C129.406 343.531 124.594 329.125 130.531 317.266L173.018 232.293L32 121.768V416C32 451.346 60.654 480 96 480H489.061L314.486 343.172C312.406 345.709 309.846 347.904 306.719 349.469ZM202.836 280H233.885L211.578 262.516L202.836 280ZM544 32H96C89.355 32 83.043 33.176 77.043 35.072L336 238.037V184C336 170.75 346.75 160 360 160H416C468.938 160 512 203.062 512 256C512 291.287 492.654 321.848 464.217 338.529L600.08 445.016C604.701 436.232 608 426.648 608 416V96C608 60.652 579.346 32 544 32ZM464 256C464 229.531 442.469 208 416 208H384V275.658L419.686 303.627C444.408 301.707 464 281.207 464 256Z" class="fa-secondary"/><path d="M630.811 469.102L38.814 5.11C34.407 1.672 29.189 0.001 24.032 0.001C16.907 0.001 9.845 3.157 5.126 9.188C-3.061 19.625 -1.249 34.719 9.189 42.891L601.186 506.883C611.686 515.086 626.749 513.211 634.874 502.805C643.061 492.367 641.249 477.274 630.811 469.102Z" class="fa-primary"/></svg>
